src/lib/packages/icons/src/assets/line/bezier.svg

<svg width="24" height="24" viewBox="0 0 24 24" fill="none" xmlns="http://www.w3.org/2000/svg">
<path d="M20.5 9.25C21.741 9.25 22.75 8.241 22.75 7C22.75 5.759 21.741 4.75 20.5 4.75C19.524 4.75 18.699 5.379 18.388 6.25H14.73C14.633 4.996 13.82 4.25 12.499 4.25H11.499C10.178 4.25 9.366 4.996 9.26801 6.25H5.60999C5.29899 5.379 4.47499 4.75 3.49799 4.75C2.25699 4.75 1.24799 5.759 1.24799 7C1.24799 8.241 2.25699 9.25 3.49799 9.25C4.47399 9.25 5.29899 8.621 5.60999 7.75H7.20398C5.45598 9.11 4.44002 11.358 4.29102 14.266C3.01202 14.348 2.24902 15.164 2.24902 16.5V17.5C2.24902 18.909 3.09002 19.75 4.49902 19.75H5.49902C6.90802 19.75 7.74902 18.909 7.74902 17.5V16.5C7.74902 15.187 7.01097 14.377 5.77197 14.271C5.88997 12.194 6.58399 9.32399 9.34399 8.21799C9.59099 9.18499 10.353 9.75 11.499 9.75H12.499C13.646 9.75 14.407 9.18599 14.654 8.21799C17.414 9.32399 18.108 12.194 18.226 14.271C16.986 14.376 16.249 15.187 16.249 16.5V17.5C16.249 18.909 17.09 19.75 18.499 19.75H19.499C20.908 19.75 21.749 18.909 21.749 17.5V16.5C21.749 15.164 20.986 14.348 19.707 14.266C19.558 11.358 18.542 9.11 16.794 7.75H18.388C18.699 8.621 19.524 9.25 20.5 9.25ZM6.25 16.5V17.5C6.25 18.089 6.089 18.25 5.5 18.25H4.5C3.911 18.25 3.75 18.089 3.75 17.5V16.5C3.75 15.911 3.911 15.75 4.5 15.75H5.5C6.089 15.75 6.25 15.911 6.25 16.5ZM20.25 16.5V17.5C20.25 18.089 20.089 18.25 19.5 18.25H18.5C17.911 18.25 17.75 18.089 17.75 17.5V16.5C17.75 15.911 17.911 15.75 18.5 15.75H19.5C20.089 15.75 20.25 15.911 20.25 16.5ZM20.5 6.25C20.914 6.25 21.25 6.586 21.25 7C21.25 7.414 20.914 7.75 20.5 7.75C20.086 7.75 19.75 7.414 19.75 7C19.75 6.586 20.086 6.25 20.5 6.25ZM3.5 7.75C3.086 7.75 2.75 7.414 2.75 7C2.75 6.586 3.086 6.25 3.5 6.25C3.914 6.25 4.25 6.586 4.25 7C4.25 7.414 3.914 7.75 3.5 7.75ZM13.25 7.5C13.25 8.089 13.089 8.25 12.5 8.25H11.5C10.911 8.25 10.75 8.089 10.75 7.5V6.5C10.75 5.911 10.911 5.75 11.5 5.75H12.5C13.089 5.75 13.25 5.911 13.25 6.5V7.5Z" fill="currentColor"/>
</svg>

<svg xmlns="http://www.w3.org/2000/svg" width="24" height="24" fill="none"><path fill="currentColor" d="M20.5 9.25A2.252 2.252 0 0 0 22.75 7a2.252 2.252 0 0 0-2.25-2.25c-.976 0-1.801.629-2.112 1.5H14.73c-.097-1.254-.91-2-2.231-2h-1c-1.321 0-2.133.746-2.231 2H5.61a2.247 2.247 0 0 0-2.112-1.5A2.252 2.252 0 0 0 1.248 7a2.252 2.252 0 0 0 2.25 2.25c.976 0 1.801-.629 2.112-1.5h1.594c-1.748 1.36-2.764 3.608-2.913 6.516-1.279.082-2.042.898-2.042 2.234v1c0 1.409.841 2.25 2.25 2.25h1c1.409 0 2.25-.841 2.25-2.25v-1c0-1.313-.738-2.123-1.977-2.229.118-2.077.812-4.947 3.572-6.053.247.967 1.009 1.532 2.155 1.532h1c1.147 0 1.908-.564 2.155-1.532 2.76 1.106 3.454 3.976 3.572 6.053-1.24.105-1.977.916-1.977 2.229v1c0 1.409.841 2.25 2.25 2.25h1c1.409 0 2.25-.841 2.25-2.25v-1c0-1.336-.763-2.152-2.042-2.234-.149-2.908-1.165-5.156-2.913-6.516h1.594a2.248 2.248 0 0 0 2.112 1.5ZM6.25 16.5v1c0 .589-.161.75-.75.75h-1c-.589 0-.75-.161-.75-.75v-1c0-.589.161-.75.75-.75h1c.589 0 .75.161.75.75Zm14 0v1c0 .589-.161.75-.75.75h-1c-.589 0-.75-.161-.75-.75v-1c0-.589.161-.75.75-.75h1c.589 0 .75.161.75.75Zm.25-10.25a.75.75 0 1 1 0 1.5.75.75 0 0 1 0-1.5Zm-17 1.5a.75.75 0 1 1 0-1.5.75.75 0 0 1 0 1.5Zm9.75-.25c0 .589-.161.75-.75.75h-1c-.589 0-.75-.161-.75-.75v-1c0-.589.161-.75.75-.75h1c.589 0 .75.161.75.75v1Z"/></svg>
